images-source/features/domain.svg

<?xml version="1.0" encoding="UTF-8"?>
<svg width="62px" height="62px" viewBox="0 0 62 62" version="1.1" xmlns="http://www.w3.org/2000/svg" xmlns:xlink="http://www.w3.org/1999/xlink">
    <!-- Generator: Sketch 48.2 (47327) - http://www.bohemiancoding.com/sketch -->
    <title>domain</title>
    <desc>Created with Sketch.</desc>
    <defs></defs>
    <g id="platform" stroke="none" stroke-width="1" fill="none" fill-rule="evenodd" transform="translate(-808.000000, -7646.000000)">
        <g id="Group-6" transform="translate(30.000000, 7509.000000)">
            <g id="Group-5" transform="translate(569.000000, 137.000000)">
                <g id="domain" transform="translate(209.000000, 0.000000)">
                    <g id="http">
                        <rect id="Rectangle-12" fill="#FFFFFF" x="2" y="7" width="60" height="55"></rect>
                        <rect id="Rectangle-12-Copy" fill="#FFAF1D" x="2" y="1" width="60" height="8"></rect>
                        <path d="M58.9,0 L3.1,0 C1.39088281,0 0,1.39088281 0,3.1 L0,9.3 L0,58.9 C0,60.6091172 1.39088281,62 3.1,62 L58.9,62 C60.6091172,62 62,60.6091172 62,58.9 L62,9.3 L62,3.1 C62,1.39088281 60.6091172,0 58.9,0 Z M2.06670703,3.1 C2.06670703,2.53061719 2.53061719,2.06670703 3.1,2.06670703 L58.9,2.06670703 C59.4693828,2.06670703 59.933293,2.53061719 59.933293,3.1 L59.933293,8.26670703 L2.06670703,8.26670703 L2.06670703,3.1 Z M59.933293,58.9 C59.933293,59.4693828 59.4693828,59.933293 58.9,59.933293 L3.1,59.933293 C2.53061719,59.933293 2.06670703,59.4693828 2.06670703,58.9 L2.06670703,10.333293 L59.9334141,10.333293 L59.9334141,58.9 L59.933293,58.9 Z" id="Shape" fill="#000000" fill-rule="nonzero"></path>
                        <circle id="Oval" fill="#000000" fill-rule="nonzero" cx="5.16670703" cy="5.16670703" r="1.03329297"></circle>
                        <circle id="Oval" fill="#000000" fill-rule="nonzero" cx="9.3" cy="5.16670703" r="1.03329297"></circle>
                        <circle id="Oval" fill="#000000" fill-rule="nonzero" cx="13.433293" cy="5.16670703" r="1.03329297"></circle>
                        <circle id="Oval" fill="#00AAE3" fill-rule="nonzero" cx="46.5" cy="32.033293" r="1.03329297"></circle>
                        <circle id="Oval" fill="#00AAE3" fill-rule="nonzero" cx="46.5" cy="38.233293" r="1.03329297"></circle>
                        <path d="M15.5,32.033293 L17.566707,32.033293 L17.566707,39.2665859 C17.566707,39.8369375 18.0296484,40.2998789 18.6,40.2998789 C19.1703516,40.2998789 19.633293,39.8369375 19.633293,39.2665859 L19.633293,32.033293 L21.7,32.033293 C22.2703516,32.033293 22.733293,31.5703516 22.733293,31 C22.733293,30.4296484 22.2703516,29.966707 21.7,29.966707 L15.5,29.966707 C14.9296484,29.966707 14.466707,30.4296484 14.466707,31 C14.466707,31.5703516 14.9296484,32.033293 15.5,32.033293 Z" id="Shape" fill="#00AAE3" fill-rule="nonzero"></path>
                        <path d="M25.833293,32.033293 L27.9,32.033293 L27.9,39.2665859 C27.9,39.8369375 28.3629414,40.2998789 28.933293,40.2998789 C29.5036445,40.2998789 29.9665859,39.8369375 29.9665859,39.2665859 L29.9665859,32.033293 L32.033293,32.033293 C32.6036445,32.033293 33.0665859,31.5703516 33.0665859,31 C33.0665859,30.4296484 32.6036445,29.966707 32.033293,29.966707 L25.833293,29.966707 C25.2629414,29.966707 24.8,30.4296484 24.8,31 C24.8,31.5703516 25.2629414,32.033293 25.833293,32.033293 Z" id="Shape" fill="#00AAE3" fill-rule="nonzero"></path>
                        <path d="M36.166707,40.3 C36.7370586,40.3 37.2,39.8370586 37.2,39.266707 L37.2,36.166707 L39.266707,36.166707 C40.9758242,36.166707 42.366707,34.7758242 42.366707,33.066707 C42.366707,31.3575898 40.9758242,29.966707 39.266707,29.966707 L36.166707,29.966707 C35.5963555,29.966707 35.1334141,30.4296484 35.1334141,31 L35.1334141,35.133293 L35.1334141,39.2665859 C35.133293,39.8370586 35.5962344,40.3 36.166707,40.3 Z M40.3,33.066707 C40.3,33.6360898 39.8360898,34.1 39.266707,34.1 L37.2,34.1 L37.2,32.033293 L39.266707,32.033293 C39.8360898,32.033293 40.3,32.4973242 40.3,33.066707 Z" id="Shape" fill="#00AAE3" fill-rule="nonzero"></path>
                        <path d="M5.16670703,40.3 C5.73705859,40.3 6.2,39.8370586 6.2,39.266707 L6.2,36.166707 L10.333293,36.166707 L10.333293,39.266707 C10.333293,39.8370586 10.7962344,40.3 11.3665859,40.3 C11.9369375,40.3 12.3998789,39.8370586 12.3998789,39.266707 L12.3998789,31 C12.3998789,30.4296484 11.9369375,29.966707 11.3665859,29.966707 C10.7962344,29.966707 10.333293,30.4296484 10.333293,31 L10.333293,34.1 L6.2,34.1 L6.2,31 C6.2,30.4296484 5.73705859,29.966707 5.16670703,29.966707 C4.59635547,29.966707 4.13341406,30.4296484 4.13341406,31 L4.13341406,39.266707 C4.13329297,39.8370586 4.59623437,40.3 5.16670703,40.3 Z" id="Shape" fill="#00AAE3" fill-rule="nonzero"></path>
                        <path d="M50.3822656,40.269 C50.4670313,40.2906758 50.550707,40.3 50.6343828,40.3 C51.0973242,40.3 51.5178828,39.9868516 51.635707,39.5177344 L53.7024141,31.2510273 C53.8408242,30.6971445 53.5040625,30.1361172 52.9511484,29.9975859 C52.4004141,29.8601445 51.8362383,30.1959375 51.697707,30.7488516 L49.631,39.0155586 C49.4925898,39.5694414 49.8293516,40.1305898 50.3822656,40.269 Z" id="Shape" fill="#00AAE3" fill-rule="nonzero"></path>
                        <path d="M54.5155586,40.269 C54.6003242,40.2906758 54.684,40.3 54.7676758,40.3 C55.2306172,40.3 55.6511758,39.9868516 55.769,39.5177344 L57.835707,31.2510273 C57.9741172,30.6971445 57.6373555,30.1361172 57.0844414,29.9975859 C56.5326172,29.8601445 55.9695312,30.1959375 55.831,30.7488516 L53.764293,39.0155586 C53.6258828,39.5694414 53.9627656,40.1305898 54.5155586,40.269 Z" id="Shape" fill="#00AAE3" fill-rule="nonzero"></path>
                    </g>
                </g>
            </g>
        </g>
    </g>
</svg>

<svg width="62" height="62" viewBox="0 0 62 62" xmlns="http://www.w3.org/2000/svg"><title>domain</title><g fill="none" fill-rule="evenodd"><path fill="#FFF" d="M2 7h60v55H2z"/><path fill="#FFAF1D" d="M2 1h60v8H2z"/><path d="M58.9 0H3.1C1.39 0 0 1.39 0 3.1V58.9C0 60.61 1.39 62 3.1 62h55.8c1.71 0 3.1-1.39 3.1-3.1V3.1C62 1.39 60.61 0 58.9 0zM2.067 3.1c0-.57.464-1.033 1.033-1.033h55.8c.57 0 1.033.464 1.033 1.033v5.167H2.067V3.1zm57.866 55.8c0 .57-.464 1.033-1.033 1.033H3.1c-.57 0-1.033-.464-1.033-1.033V10.333h57.866V58.9z" fill="#000" fill-rule="nonzero"/><circle fill="#000" fill-rule="nonzero" cx="5.167" cy="5.167" r="1.033"/><circle fill="#000" fill-rule="nonzero" cx="9.3" cy="5.167" r="1.033"/><circle fill="#000" fill-rule="nonzero" cx="13.433" cy="5.167" r="1.033"/><circle fill="#00AAE3" fill-rule="nonzero" cx="46.5" cy="32.033" r="1.033"/><circle fill="#00AAE3" fill-rule="nonzero" cx="46.5" cy="38.233" r="1.033"/><path d="M15.5 32.033h2.067v7.234a1.034 1.034 0 0 0 2.066 0v-7.234H21.7a1.034 1.034 0 0 0 0-2.066h-6.2a1.034 1.034 0 0 0 0 2.066zM25.833 32.033H27.9v7.234a1.034 1.034 0 0 0 2.067 0v-7.234h2.066a1.034 1.034 0 0 0 0-2.066h-6.2a1.034 1.034 0 0 0 0 2.066zM36.167 40.3c.57 0 1.033-.463 1.033-1.033v-3.1h2.067c1.709 0 3.1-1.391 3.1-3.1 0-1.71-1.391-3.1-3.1-3.1h-3.1c-.57 0-1.034.463-1.034 1.033v8.267c0 .57.463 1.033 1.034 1.033zm4.133-7.233c0 .57-.464 1.033-1.033 1.033H37.2v-2.067h2.067c.57 0 1.033.464 1.033 1.034zM5.167 40.3c.57 0 1.033-.463 1.033-1.033v-3.1h4.133v3.1a1.034 1.034 0 0 0 2.067 0V31a1.034 1.034 0 0 0-2.067 0v3.1H6.2V31a1.034 1.034 0 0 0-2.067 0v8.267c0 .57.463 1.033 1.034 1.033zM50.382 40.269a1.034 1.034 0 0 0 1.253-.751l2.067-8.267a1.034 1.034 0 0 0-2.004-.502l-2.067 8.267a1.034 1.034 0 0 0 .751 1.253zM54.516 40.269a1.034 1.034 0 0 0 1.253-.751l2.067-8.267a1.034 1.034 0 0 0-2.005-.502l-2.067 8.267a1.034 1.034 0 0 0 .752 1.253z" fill="#00AAE3" fill-rule="nonzero"/></g></svg>
